assets/svgSource/zhihu.svg

<svg viewBox="0 0 24 11" xmlns="http://www.w3.org/2000/svg">
<path fill-rule="evenodd" clip-rule="evenodd" d="M10.8937 1.34312H6.27487V9.35237H7.40662L7.55775 10.3169L9.08812 9.35237H10.8937V1.34312ZM8.94112 8.35187L8.04262 8.91775L7.9545 8.35225H7.308V2.33725H9.8505V8.35225H8.94112V8.35187ZM5.4225 4.9465H3.74325C3.74325 4.8512 3.74685 4.7546 3.75052 4.65616L3.75052 4.65615C3.75366 4.57213 3.75684 4.48677 3.75787 4.39975V2.33725H5.67262V1.8505C5.67228 1.78364 5.65872 1.71752 5.63272 1.65593C5.60672 1.59434 5.56879 1.5385 5.52112 1.49162C5.42434 1.39634 5.29394 1.343 5.15812 1.34312H2.16862L2.17124 1.33488C2.18087 1.3046 2.1905 1.27431 2.20012 1.2475C2.30287 0.939996 2.6325 0.000246201 2.6325 0.000246201C2.31143 -0.00538887 1.99611 0.0858236 1.72762 0.261996C1.51387 0.411996 1.38562 0.517746 1.2135 0.991746C1.10905 1.27703 1.01148 1.55717 0.925381 1.80439L0.925379 1.8044L0.925378 1.8044C0.847029 2.02937 0.77817 2.22708 0.72225 2.37662C0.5415 2.87762 0.105 3.75925 0.105 3.75925C0.433145 3.75464 0.756075 3.67647 1.05 3.5305C1.46962 3.30812 1.67962 2.96725 1.82025 2.44937L1.854 2.33687H2.72925V4.39937C2.72925 4.53704 2.72015 4.67108 2.71116 4.80355L2.71116 4.80357C2.7079 4.85151 2.70466 4.89924 2.70187 4.94687H1.15687C0.890625 4.94687 0.635625 5.05112 0.447 5.2375C0.354051 5.32942 0.280245 5.43886 0.229846 5.55948C0.179447 5.6801 0.153456 5.80952 0.153375 5.94025H2.601C2.55218 6.40537 2.45439 6.86404 2.30925 7.30862C2.05602 8.0309 1.67327 8.70097 1.17975 9.286C0.811292 9.68348 0.417198 10.0564 0 10.4024C0 10.4024 1.17375 10.843 2.03437 10.0446C2.55487 9.56012 3.021 8.61437 3.24562 7.897C3.44766 7.25821 3.5883 6.60161 3.66562 5.93612H5.90325V5.42237C5.90358 5.35969 5.89137 5.29758 5.86735 5.23968C5.84333 5.18179 5.80798 5.12928 5.76337 5.08525C5.71849 5.04081 5.66527 5.00569 5.60677 4.98187C5.54828 4.95806 5.48565 4.94604 5.4225 4.9465ZM4.22625 7.003L3.35925 7.56212L5.2485 10.3589C5.37876 10.0978 5.46396 9.81659 5.5005 9.52712C5.56367 9.25228 5.52643 8.9639 5.3955 8.71412L4.22625 7.003ZM19.2934 5.323V1.81562C20.8612 1.73875 22.2889 1.66375 22.8326 1.6345L23.1517 1.61575C23.2969 1.46612 23.4836 0.717621 23.4101 0.482871C23.3827 0.389121 23.3302 0.233121 23.1709 0.274746C22.6427 0.400409 22.107 0.491478 21.567 0.547371C20.5651 0.663643 20.1097 0.696645 18.7842 0.792708L18.6405 0.803121C16.1213 0.985746 13.8746 1.07312 13.8746 1.07312C13.8744 1.20185 13.9005 1.32926 13.9513 1.44753C14.0021 1.5658 14.0766 1.67243 14.1701 1.76087C14.2639 1.85026 14.3748 1.91978 14.4962 1.96527C14.6175 2.01076 14.7468 2.03129 14.8763 2.02562C15.7305 1.99 16.9755 1.93187 18.2498 1.87187V5.323H13.4573C13.4573 5.58662 13.5626 5.83937 13.7509 6.02575C13.9398 6.2125 14.1947 6.3172 14.4604 6.31712H18.2498V8.97025C18.2498 9.30287 18.0758 9.41725 17.7881 9.4255H16.3181C16.3802 9.63868 16.4873 9.8361 16.632 10.0045C16.7771 10.1736 16.9564 10.31 17.1581 10.4046C17.485 10.514 17.8321 10.5494 18.1744 10.5085C18.6844 10.4837 19.287 10.1987 19.287 9.16975V6.31712H23.517C23.6453 6.31712 23.7682 6.2665 23.8582 6.17687C23.949 6.08725 24 5.96575 24 5.83862V5.323H19.2934ZM15.7322 2.72216C15.8292 2.78176 15.9135 2.85995 15.9803 2.95225V2.95262L17.0618 4.44512L16.2218 5.05262L14.6261 2.85887L14.7671 2.75687C14.9546 2.62299 15.1873 2.56842 15.4148 2.605C15.5273 2.62275 15.6351 2.66257 15.7322 2.72216ZM20.3344 4.41625L21.5063 2.87987H21.5059C21.6458 2.69603 21.853 2.5752 22.0819 2.54387C22.1954 2.52821 22.3109 2.53513 22.4217 2.56421C22.5325 2.5933 22.6365 2.64399 22.7276 2.71337L22.8683 2.81725L21.1744 5.03987L20.3344 4.41625Z" fill="currentColor"/>
</svg>

<svg viewBox="0 0 24 11" xmlns="http://www.w3.org/2000/svg"><path fill-rule="evenodd" clip-rule="evenodd" d="M10.894 1.343h-4.62v8.01h1.133l.15.964 1.531-.965h1.806V1.343ZM8.94 8.352l-.898.566-.088-.566h-.647V2.337h2.543v6.015h-.91ZM5.422 4.947H3.744c0-.096.004-.192.008-.29a9.99 9.99 0 0 0 .007-.257V2.337h1.915V1.85a.507.507 0 0 0-.152-.358.517.517 0 0 0-.363-.149h-2.99l.003-.008.03-.087C2.302.94 2.631 0 2.631 0a1.598 1.598 0 0 0-.904.262c-.214.15-.342.256-.514.73-.105.285-.203.565-.289.812-.078.225-.147.423-.203.573-.18.5-.617 1.382-.617 1.382.328-.004.651-.083.945-.228.42-.223.63-.564.77-1.082l.034-.112h.875v2.062c0 .138-.009.272-.018.405a15.31 15.31 0 0 0-.01.143H1.158a1.01 1.01 0 0 0-.927.612.99.99 0 0 0-.077.381h2.448a6.644 6.644 0 0 1-.292 1.369 6.299 6.299 0 0 1-1.13 1.977c-.368.397-.762.77-1.179 1.116 0 0 1.174.441 2.034-.357.52-.485.987-1.43 1.212-2.148.202-.639.342-1.295.42-1.96h2.237v-.515a.47.47 0 0 0-.296-.44.48.48 0 0 0-.184-.035ZM4.227 7.003l-.867.56 1.89 2.796a2.59 2.59 0 0 0 .252-.832 1.181 1.181 0 0 0-.106-.813L4.226 7.003Zm15.067-1.68V1.816c1.568-.077 2.996-.152 3.54-.181l.319-.02c.145-.149.332-.897.258-1.132-.027-.094-.08-.25-.24-.208-.527.125-1.063.216-1.603.272-1.002.117-1.457.15-2.783.246l-.143.01c-2.52.183-4.766.27-4.766.27a.945.945 0 0 0 .295.688.962.962 0 0 0 .706.265c.854-.036 2.1-.094 3.374-.154v3.451h-4.793c0 .264.106.516.294.703.189.187.444.291.71.291h3.789V8.97c0 .333-.174.447-.462.455h-1.47a1.557 1.557 0 0 0 .84.98c.327.109.674.144 1.016.104.51-.025 1.113-.31 1.113-1.34V6.318h4.23A.484.484 0 0 0 24 5.84v-.516h-4.707Zm-3.56-2.6c.096.059.18.137.247.23l1.082 1.492-.84.608-1.596-2.194.141-.102a.875.875 0 0 1 .965-.035Zm4.601 1.693 1.172-1.536a.873.873 0 0 1 1.222-.167l.14.104-1.694 2.223-.84-.624Z" fill="currentColor"/></svg>
